flaticon/household/plant-2.svg

<svg xmlns="http://www.w3.org/2000/svg" width="32" height="32" viewBox="0 0 24 24">
    <path d="M 12.203125 15.109375 L 12.203125 11.234375 L 14.726562 8.710938 C 15.046875 8.921875 15.429688 9.046875 15.839844 9.046875 C 17.1875 9.046875 18.179688 8.179688 18.699219 6.542969 C 19.066406 5.386719 19.070312 4.246094 19.070312 4.199219 L 19.070312 3.753906 L 18.628906 3.796875 C 18.433594 3.8125 13.820312 4.28125 13.820312 7.027344 C 13.820312 7.4375 13.945312 7.820312 14.15625 8.140625 L 12.203125 10.09375 L 12.203125 6.144531 C 12.613281 6.078125 12.996094 5.886719 13.296875 5.585938 C 13.835938 5.042969 14.097656 4.40625 14.066406 3.691406 C 13.996094 1.925781 12.140625 0.320312 12.058594 0.253906 L 11.761719 0 L 11.5 0.289062 C 11.375 0.425781 8.484375 3.632812 10.4375 5.585938 C 10.707031 5.851562 11.035156 6.03125 11.394531 6.117188 L 11.394531 9.6875 L 9.84375 8.140625 C 10.054688 7.820312 10.179688 7.4375 10.179688 7.027344 C 10.179688 4.28125 5.566406 3.816406 5.371094 3.796875 L 4.929688 3.753906 L 4.929688 4.199219 C 4.929688 4.246094 4.933594 5.386719 5.300781 6.542969 C 5.820312 8.183594 6.8125 9.046875 8.160156 9.046875 C 8.570312 9.046875 8.953125 8.921875 9.273438 8.710938 L 11.394531 10.832031 L 11.394531 14.941406 L 9.84375 13.394531 C 10.054688 13.074219 10.179688 12.691406 10.179688 12.28125 C 10.179688 9.535156 5.566406 9.070312 5.371094 9.050781 L 4.929688 9.007812 L 4.929688 9.453125 C 4.929688 9.5 4.933594 10.640625 5.300781 11.796875 C 5.820312 13.4375 6.8125 14.300781 8.160156 14.300781 C 8.570312 14.300781 8.953125 14.175781 9.273438 13.964844 L 10.417969 15.109375 L 5.734375 15.109375 L 5.734375 18.34375 L 6.570312 18.34375 L 6.976562 24 L 16.617188 24 L 17.023438 18.34375 L 17.859375 18.34375 L 17.859375 15.109375 L 13.582031 15.109375 L 14.726562 13.964844 C 15.046875 14.175781 15.429688 14.300781 15.839844 14.300781 C 17.1875 14.300781 18.179688 13.4375 18.699219 11.796875 C 19.066406 10.640625 19.070312 9.5 19.070312 9.453125 L 19.070312 9.007812 L 18.628906 9.050781 C 18.433594 9.070312 13.820312 9.535156 13.820312 12.28125 C 13.820312 12.691406 13.945312 13.074219 14.15625 13.394531 L 12.4375 15.109375 Z M 9.375 7.027344 C 9.375 7.214844 9.328125 7.386719 9.25 7.546875 L 6.535156 4.832031 C 7.734375 5.128906 9.375 5.761719 9.375 7.027344 Z M 5.835938 5.273438 L 8.679688 8.117188 C 8.523438 8.191406 8.347656 8.238281 8.160156 8.238281 C 6.570312 8.238281 6.023438 6.472656 5.835938 5.273438 Z M 15.839844 13.492188 C 15.652344 13.492188 15.476562 13.445312 15.320312 13.371094 L 18.164062 10.523438 C 17.980469 11.722656 17.433594 13.492188 15.839844 13.492188 Z M 17.460938 10.085938 L 14.746094 12.800781 C 14.671875 12.640625 14.625 12.46875 14.625 12.28125 C 14.625 11.019531 16.261719 10.382812 17.460938 10.085938 Z M 15.839844 8.238281 C 15.652344 8.238281 15.476562 8.191406 15.320312 8.117188 L 18.164062 5.273438 C 17.980469 6.46875 17.433594 8.238281 15.839844 8.238281 Z M 17.460938 4.832031 L 14.746094 7.546875 C 14.671875 7.386719 14.625 7.214844 14.625 7.027344 C 14.625 5.765625 16.261719 5.128906 17.460938 4.832031 Z M 13.261719 3.726562 C 13.28125 4.214844 13.105469 4.632812 12.722656 5.015625 C 12.578125 5.160156 12.394531 5.253906 12.203125 5.308594 L 12.203125 1.554688 C 12.695312 2.136719 13.230469 2.953125 13.261719 3.726562 Z M 11.011719 5.015625 C 10.117188 4.121094 10.78125 2.695312 11.394531 1.761719 L 11.394531 5.265625 C 11.253906 5.207031 11.121094 5.125 11.011719 5.015625 Z M 9.375 12.28125 C 9.375 12.46875 9.328125 12.640625 9.25 12.800781 L 6.535156 10.085938 C 7.734375 10.378906 9.375 11.015625 9.375 12.28125 Z M 5.835938 10.527344 L 8.679688 13.371094 C 8.523438 13.445312 8.347656 13.492188 8.160156 13.492188 C 6.570312 13.492188 6.023438 11.722656 5.835938 10.527344 Z M 17.050781 17.535156 L 16.269531 17.535156 L 15.867188 23.191406 L 7.730469 23.191406 L 7.324219 17.535156 L 6.542969 17.535156 L 6.542969 15.917969 L 17.050781 15.917969 Z M 17.050781 17.535156"/>
    <path d="M9.375 17.535156C9.148438 17.535156 8.96875 17.714844 8.96875 17.9375L8.96875 18.34375C8.96875 18.566406 9.148438 18.746094 9.375 18.746094 9.597656 18.746094 9.777344 18.566406 9.777344 18.34375L9.777344 17.9375C9.777344 17.714844 9.597656 17.535156 9.375 17.535156zM8.160156 17.535156C7.9375 17.535156 7.757812 17.714844 7.757812 17.9375L7.757812 18.34375C7.757812 18.566406 7.9375 18.746094 8.160156 18.746094 8.382812 18.746094 8.566406 18.566406 8.566406 18.34375L8.566406 17.9375C8.566406 17.714844 8.382812 17.535156 8.160156 17.535156zM15.433594 18.746094C15.660156 18.746094 15.839844 18.566406 15.839844 18.34375L15.839844 17.9375C15.839844 17.714844 15.660156 17.535156 15.433594 17.535156 15.210938 17.535156 15.03125 17.714844 15.03125 17.9375L15.03125 18.34375C15.03125 18.566406 15.210938 18.746094 15.433594 18.746094zM14.222656 18.746094C14.445312 18.746094 14.625 18.566406 14.625 18.34375L14.625 17.9375C14.625 17.714844 14.445312 17.535156 14.222656 17.535156 14 17.535156 13.820312 17.714844 13.820312 17.9375L13.820312 18.34375C13.820312 18.566406 14 18.746094 14.222656 18.746094zM12.605469 18.34375C12.605469 18.566406 12.785156 18.746094 13.011719 18.746094 13.234375 18.746094 13.414062 18.566406 13.414062 18.34375L13.414062 17.9375C13.414062 17.714844 13.234375 17.535156 13.011719 17.535156 12.785156 17.535156 12.605469 17.714844 12.605469 17.9375zM11.796875 17.535156C11.574219 17.535156 11.394531 17.714844 11.394531 17.9375L11.394531 18.34375C11.394531 18.566406 11.574219 18.746094 11.796875 18.746094 12.019531 18.746094 12.203125 18.566406 12.203125 18.34375L12.203125 17.9375C12.203125 17.714844 12.019531 17.535156 11.796875 17.535156zM10.585938 17.535156C10.363281 17.535156 10.179688 17.714844 10.179688 17.9375L10.179688 18.34375C10.179688 18.566406 10.363281 18.746094 10.585938 18.746094 10.808594 18.746094 10.988281 18.566406 10.988281 18.34375L10.988281 17.9375C10.988281 17.714844 10.808594 17.535156 10.585938 17.535156zM10.585938 17.535156"/>
</svg>

<svg xmlns="http://www.w3.org/2000/svg" width="32" height="32" viewBox="0 0 24 24">
    <path d="M12.203 15.11v-3.876l2.524-2.523c.32.21.703.336 1.113.336 1.348 0 2.34-.867 2.86-2.504a8.65 8.65 0 0 0 .37-2.344v-.445l-.441.043c-.195.015-4.809.484-4.809 3.23 0 .41.125.793.336 1.114l-1.953 1.953v-3.95c.41-.066.793-.257 1.094-.558.539-.543.8-1.18.77-1.895-.07-1.765-1.926-3.37-2.008-3.437L11.762 0 11.5.29c-.125.136-3.016 3.343-1.063 5.296.27.266.598.445.958.531v3.57L9.844 8.142c.21-.32.336-.704.336-1.114 0-2.746-4.614-3.21-4.809-3.23l-.441-.043v.445c0 .047.004 1.188.37 2.344.52 1.64 1.513 2.504 2.86 2.504.41 0 .793-.125 1.113-.336l2.122 2.121v4.11l-1.551-1.547c.21-.32.336-.704.336-1.114 0-2.746-4.614-3.21-4.809-3.23l-.441-.043v.445c0 .047.004 1.188.37 2.344.52 1.64 1.513 2.504 2.86 2.504.41 0 .793-.125 1.113-.336l1.145 1.144H5.734v3.235h.836L6.977 24h9.64l.406-5.656h.836v-3.235h-4.277l1.145-1.144c.32.21.703.336 1.113.336 1.348 0 2.34-.864 2.86-2.504a8.65 8.65 0 0 0 .37-2.344v-.445l-.441.043c-.195.02-4.809.484-4.809 3.23 0 .41.125.793.336 1.114l-1.719 1.714zM9.375 7.026c0 .188-.047.36-.125.52L6.535 4.832c1.2.297 2.84.93 2.84 2.195zm-3.54-1.754L8.68 8.117a1.21 1.21 0 0 1-.52.121c-1.59 0-2.137-1.765-2.324-2.965zm10.005 8.22a1.21 1.21 0 0 1-.52-.122l2.844-2.848c-.184 1.2-.73 2.97-2.324 2.97zm1.62-3.407L14.747 12.8a1.223 1.223 0 0 1-.121-.52c0-1.261 1.637-1.898 2.836-2.195zm-1.62-1.848a1.21 1.21 0 0 1-.52-.12l2.844-2.845c-.184 1.196-.73 2.965-2.324 2.965zm1.62-3.406l-2.714 2.715a1.223 1.223 0 0 1-.121-.52c0-1.261 1.637-1.898 2.836-2.195zm-4.198-1.105c.02.488-.157.906-.54 1.289a1.19 1.19 0 0 1-.519.293V1.555c.492.582 1.027 1.398 1.059 2.172zm-2.25 1.289c-.895-.895-.23-2.32.383-3.254v3.504a1.18 1.18 0 0 1-.383-.25zM9.375 12.28c0 .188-.047.36-.125.52l-2.715-2.715c1.2.293 2.84.93 2.84 2.195zm-3.54-1.754l2.845 2.844a1.21 1.21 0 0 1-.52.121c-1.59 0-2.137-1.77-2.324-2.965zm11.216 7.008h-.781l-.403 5.656H7.73l-.406-5.656h-.781v-1.617h10.508zm0 0"/>
    <path d="M9.375 17.535a.403.403 0 0 0-.406.402v.407c0 .222.18.402.406.402.223 0 .402-.18.402-.402v-.407a.402.402 0 0 0-.402-.402zm0 0M8.16 17.535a.402.402 0 0 0-.402.402v.407a.405.405 0 0 0 .809 0v-.406a.405.405 0 0 0-.407-.403zm0 0M15.434 18.746c.226 0 .406-.18.406-.402v-.407a.403.403 0 0 0-.406-.402.402.402 0 0 0-.403.402v.407c0 .222.18.402.403.402zm0 0M14.223 18.746c.222 0 .402-.18.402-.402v-.407a.402.402 0 1 0-.805 0v.407c0 .222.18.402.403.402zm0 0M12.605 18.344c0 .222.18.402.407.402.222 0 .402-.18.402-.402v-.407a.402.402 0 0 0-.402-.402.403.403 0 0 0-.407.402zm0 0M11.797 17.535a.402.402 0 0 0-.402.402v.407a.405.405 0 0 0 .809 0v-.406a.405.405 0 0 0-.407-.403zm0 0M10.586 17.535a.405.405 0 0 0-.406.402v.407a.405.405 0 0 0 .808 0v-.407a.402.402 0 0 0-.402-.402zm0 0"/>
</svg>
